tools/download-figma-icons/icons/solid/solar-plant.svg

<svg width="24" height="25" viewBox="0 0 24 25" fill="none" xmlns="http://www.w3.org/2000/svg">
<path fill-rule="evenodd" clip-rule="evenodd" d="M11.8223 3C12.237 3 12.5723 2.66475 12.5723 2.25V0.75C12.5723 0.33525 12.237 0 11.8223 0C11.4075 0 11.0723 0.33525 11.0723 0.75V2.25C11.0723 2.66475 11.4075 3 11.8223 3ZM11.8203 9.23776C13.2461 9.23776 14.4041 8.07976 14.4041 6.65401C14.4041 5.22826 13.2461 4.07026 11.8203 4.07026C10.3938 4.07026 9.23583 5.22826 9.23583 6.65401C9.23583 8.07976 10.3938 9.23776 11.8203 9.23776ZM4.12382 18.6921L5.04782 15.0021C5.12657 14.6871 5.41382 14.4644 5.74307 14.4644H9.21782L9.12482 15.1814L8.64482 18.6921H4.12382ZM8.49415 19.7665L8.02165 23.2848L7.92115 24.001H3.71515C3.49315 24.001 3.2854 23.9013 3.1489 23.7213C3.0124 23.5503 2.9704 23.3208 3.0199 23.113L3.8584 19.7665H8.49415ZM9.72662 18.6921H13.9536L13.5666 15.1814L13.4886 14.4644H10.2996L10.1991 15.1814L9.72662 18.6921ZM14.5345 24.0014H9.00326L9.09626 23.2852L9.57626 19.7669H14.0688L14.4558 23.2852L14.5345 24.0014ZM14.6484 15.1814L15.0362 18.6921H19.5144L18.5972 15.0021C18.5109 14.6871 18.2319 14.4644 17.9019 14.4644H14.5704L14.6484 15.1814ZM20.4883 23.7217C20.3518 23.9009 20.1448 24.0014 19.922 24.0014H15.6163L15.5376 23.2852L15.1506 19.7669H19.7855L20.6173 23.1127C20.675 23.3212 20.6248 23.5499 20.4883 23.7217ZM8.70947 4.2891C8.51747 4.2891 8.32547 4.2156 8.17922 4.06935L7.11872 3.00885C6.82547 2.7156 6.82547 2.24085 7.11872 1.94835C7.41197 1.6551 7.88597 1.6551 8.17922 1.94835L9.23972 3.00885C9.53297 3.3021 9.53297 3.7761 9.23972 4.06935C9.09347 4.2156 8.90147 4.2891 8.70947 4.2891ZM5.92046 7.40182H7.42046C7.83521 7.40182 8.17046 7.06657 8.17046 6.65182C8.17046 6.23707 7.83521 5.90181 7.42046 5.90181H5.92046C5.50571 5.90181 5.17046 6.23707 5.17046 6.65182C5.17046 7.06657 5.50571 7.40182 5.92046 7.40182ZM7.11872 10.2941L8.17922 9.23363C8.47247 8.94038 8.94647 8.94038 9.23972 9.23363C9.53297 9.52688 9.53297 10.0009 9.23972 10.2941L8.17922 11.3546C8.03297 11.5009 7.84097 11.5744 7.64897 11.5744C7.45697 11.5744 7.26497 11.5009 7.11872 11.3546C6.82547 11.0621 6.82547 10.5874 7.11872 10.2941ZM11.0723 11.053V12.553C11.0723 12.9677 11.4075 13.303 11.8223 13.303C12.237 13.303 12.5723 12.9677 12.5723 12.553V11.053C12.5723 10.6382 12.237 10.303 11.8223 10.303C11.4075 10.303 11.0723 10.6382 11.0723 11.053ZM14.4041 10.2941C14.1108 10.0016 14.1108 9.52688 14.4041 9.23363C14.6973 8.94038 15.1713 8.94038 15.4646 9.23363L16.5258 10.2941C16.8191 10.5866 16.8191 11.0621 16.5258 11.3546C16.3796 11.5009 16.1876 11.5744 15.9956 11.5744C15.8036 11.5744 15.6116 11.5009 15.4653 11.3546L14.4041 10.2941ZM15.4742 6.65182C15.4742 7.06657 15.8094 7.40182 16.2242 7.40182H17.7242C18.1389 7.40182 18.4742 7.06657 18.4742 6.65182C18.4742 6.23707 18.1389 5.90181 17.7242 5.90181H16.2242C15.8094 5.90181 15.4742 6.23707 15.4742 6.65182ZM15.4647 4.06928C15.3184 4.21553 15.1264 4.28903 14.9344 4.28903C14.7424 4.28903 14.5504 4.21553 14.4042 4.06928C14.1109 3.77603 14.1109 3.30128 14.4042 3.00878L15.4654 1.94828C15.7587 1.65503 16.2327 1.65503 16.5259 1.94828C16.8192 2.24153 16.8192 2.71628 16.5259 3.00878L15.4647 4.06928Z" fill="black"/>
</svg>

<svg xmlns="http://www.w3.org/2000/svg" width="24" height="25" fill="none" viewBox="0 0 24 25"><path fill="currentColor" fill-rule="evenodd" d="M11.822 3a.75.75 0 0 0 .75-.75V.75a.75.75 0 1 0-1.5 0v1.5c0 .415.336.75.75.75m-.002 6.238a2.585 2.585 0 0 0 2.584-2.584 2.585 2.585 0 0 0-5.168 0 2.585 2.585 0 0 0 2.584 2.584m-7.696 9.454.924-3.69a.715.715 0 0 1 .695-.538h3.475l-.093.717-.48 3.511zm4.37 1.075-.472 3.518-.1.716H3.714c-.222 0-.43-.1-.566-.28a.72.72 0 0 1-.13-.608l.84-3.346zm1.233-1.075h4.227l-.387-3.51-.078-.718h-3.19l-.1.717zm4.807 5.31h-5.53l.092-.717.48-3.518h4.493l.387 3.518zm.114-8.82.388 3.51h4.478l-.917-3.69a.72.72 0 0 0-.695-.538H14.57zm5.84 8.54a.7.7 0 0 1-.566.28h-4.306l-.078-.717-.387-3.518h4.634l.832 3.346a.69.69 0 0 1-.129.609M8.71 4.289a.75.75 0 0 1-.53-.22L7.12 3.01a.75.75 0 1 1 1.06-1.06l1.06 1.06a.75.75 0 0 1-.53 1.28M5.92 7.402h1.5a.75.75 0 1 0 0-1.5h-1.5a.75.75 0 1 0 0 1.5m1.199 2.892 1.06-1.06a.75.75 0 1 1 1.06 1.06l-1.06 1.06a.75.75 0 0 1-1.06 0 .75.75 0 0 1 0-1.06m3.953.759v1.5a.75.75 0 1 0 1.5 0v-1.5a.75.75 0 1 0-1.5 0m3.332-.759a.749.749 0 1 1 1.06-1.06l1.062 1.06a.75.75 0 1 1-1.06 1.06zm1.07-3.642c0 .415.335.75.75.75h1.5a.75.75 0 1 0 0-1.5h-1.5a.75.75 0 0 0-.75.75m-.01-2.583a.75.75 0 0 1-1.06 0 .75.75 0 0 1 0-1.06l1.061-1.06a.75.75 0 1 1 1.06 1.06z" clip-rule="evenodd"/></svg>
